assets/images/system/icon/services/money-icon.svg

<svg width="70" height="70" viewBox="0 0 70 70" fill="none" xmlns="http://www.w3.org/2000/svg">
<path d="M70 43.7792C50.0004 55.2738 33.8363 39.6258 13.125 61.25L0 32.1708L4.08917 27.9038L15.1929 52.4212L15.1871 52.4417C36.9017 36.1229 47.8392 49.0117 68.005 39.1329C68.8625 41.0229 69.6529 43.0179 70 43.7792ZM44.03 25.6667C42.6592 22.4729 38.8296 20.3379 35.4783 20.895C32.1242 21.4521 30.5142 24.4912 31.8879 27.685C33.3404 31.0537 37.4908 33.2121 40.9121 32.3604C43.9396 31.6108 45.3367 28.7088 44.03 25.6667ZM39.8067 29.6421L40.11 30.31L39.4742 30.4413L39.1913 29.8025C38.535 29.9221 37.7854 29.9046 37.0942 29.7238L36.9046 28.595C37.4733 28.6825 38.1821 28.7642 38.7217 28.6533L39.0863 28.5338C39.7308 28.2158 39.5325 27.405 38.5729 27.2125C37.8613 27.055 35.9683 27.1717 35.2625 25.6025C34.8658 24.7158 35.1604 23.7913 36.3008 23.3683L35.9858 22.6712L36.6188 22.54L36.9221 23.2079C37.3858 23.1321 37.9283 23.1029 38.5642 23.1583L38.8179 24.2754C38.325 24.2142 37.7883 24.1558 37.3246 24.2521L37.1496 24.2988C36.2483 24.5379 36.5371 25.3925 37.3363 25.5996C38.6575 25.9058 40.2354 26.005 40.8596 27.3846C41.3613 28.5075 40.7779 29.2746 39.8067 29.6421ZM56.2683 15.5925L63.3179 30.7913C50.8375 37.4529 34.5275 29.7996 19.5679 38.0858L12.8217 23.3129C24.1179 15.4554 39.6463 23.2108 56.2683 15.5925ZM58.8992 8.75C40.8771 20.4283 20.9621 7.8225 6.54208 21.7408L17.5233 45.7158C32.9758 32.6142 54.0371 45.0217 69.8833 32.7221L58.8992 8.75Z" fill="#017113"/>
</svg>

<svg xmlns="http://www.w3.org/2000/svg" width="70" height="70" fill="none" xmlns:v="https://vecta.io/nano"><path d="M70 43.779C50 55.274 33.836 39.626 13.125 61.25L0 32.171l4.089-4.267 11.104 24.517-.006.02c21.715-16.319 32.652-3.43 52.818-13.309.858 1.89 1.648 3.885 1.995 4.646zM44.03 25.667c-1.371-3.194-5.2-5.329-8.552-4.772s-4.964 3.596-3.59 6.79c1.453 3.369 5.603 5.527 9.024 4.675 3.027-.75 4.425-3.652 3.118-6.694zm-4.223 3.975l.303.668-.636.131-.283-.639c-.656.12-1.406.102-2.097-.079l-.19-1.129c.569.088 1.277.169 1.817.058l.365-.12c.645-.318.446-1.129-.513-1.321-.712-.157-2.605-.041-3.31-1.61-.397-.887-.102-1.811 1.038-2.234l-.315-.697.633-.131.303.668c.464-.076 1.006-.105 1.642-.05l.254 1.117c-.493-.061-1.03-.12-1.493-.023l-.175.047c-.901.239-.612 1.094.187 1.301 1.321.306 2.899.405 3.523 1.785.502 1.123-.082 1.89-1.053 2.258zm16.462-14.05l7.05 15.199c-12.48 6.662-28.79-.992-43.75 7.294l-6.746-14.773c11.296-7.857 26.825-.102 43.447-7.72zm2.631-6.842C40.877 20.428 20.962 7.823 6.542 21.741l10.981 23.975c15.453-13.102 36.514-.694 52.36-12.994L58.899 8.75z" fill="#017113"/></svg>
